src/assets/icons/explicit.svg

<svg width="25" height="29" viewBox="0 0 25 29" xmlns="http://www.w3.org/2000/svg"><g id="Report" fill="none" fill-rule="evenodd" opacity=".97"><g id="MVP-1.3---Report--Listing" transform="translate(-564 -643)" fill="#253238"><g id="Overlay-Report-Listing" transform="translate(97 186)"><g id="Group" transform="translate(450 202)"><path d="M36.553 281.105c-1.463.732-4.505.894-5.553.895-1.242 0-4.77-.459-6.168-2.555-2.085-3.128-4.054-6.083-5.125-7.153-.662-.662-.705-1.281-.707-1.281.012-.461.195-1.011 1-1.011 2.791 0 3.775 1.707 4 2.196V273a1 1 0 0 0 2 0v-8c0-.539.55-1 1-1a1 1 0 0 1 1 1v5a1 1 0 0 0 2 0v-12a1.001 1.001 0 0 1 2 0v12a1 1 0 0 0 2 0v-5a1.001 1.001 0 0 1 2 0v5a1 1 0 0 0 2 0v-3c0-.552.449-1 .972-1.001.171.011 1.028.16 1.028 2.001 0 7.552-1.16 11.961-3.447 13.105M39 264c-.395 0-.77.081-1.115.22A2.997 2.997 0 0 0 35 262a2.97 2.97 0 0 0-1 .184V258c0-1.655-1.345-3-3-3-1.654 0-3 1.345-3 3v4.184a2.962 2.962 0 0 0-1-.184c-1.597 0-3 1.401-3 3v4.187c-.907-.657-2.194-1.187-4-1.187-2.201 0-3 1.793-3 3 0 .144.036 1.45 1.293 2.707.93.93 2.936 3.938 4.875 6.847C25.439 283.96 30.775 284 31 284c.173 0 4.261-.013 6.448-1.106C41.529 280.854 42 273.416 42 268c0-3.165-1.962-4-3-4" id="report_explicito"/></g></g></g></g></svg>

<?xml version="1.0" encoding="UTF-8"?>
<svg width="25px" height="29px" viewBox="0 0 25 29" version="1.1" xmlns="http://www.w3.org/2000/svg" xmlns:xlink="http://www.w3.org/1999/xlink">
    <!-- Generator: Sketch 45.1 (43504) - http://www.bohemiancoding.com/sketch -->
    <title>report_explicito</title>
    <desc>Created with Sketch.</desc>
    <defs></defs>
    <g id="Report" stroke="none" stroke-width="1" fill="none" fill-rule="evenodd" opacity="0.970000029">
        <g id="MVP-1.3---Report--Listing" transform="translate(-564.000000, -643.000000)" fill="#253238">
            <g id="Overlay-Report-Listing" transform="translate(97.000000, 186.000000)">
                <g id="Group" transform="translate(450.000000, 202.000000)">
                    <path d="M36.553,281.105 C35.09,281.837 32.048,281.999 31,282 C29.758,282 26.23,281.541 24.832,279.445 C22.747,276.317 20.778,273.362 19.707,272.292 C19.045,271.63 19.002,271.011 19,271.011 C19.012,270.55 19.195,270 20,270 C22.791,270 23.775,271.707 24,272.196 L24,273 C24,273.552 24.448,274 25,274 C25.553,274 26,273.552 26,273 L26,265 C26,264.461 26.55,264 27,264 C27.552,264 28,264.448 28,265 L28,268 L28,270 C28,270.552 28.448,271 29,271 C29.553,271 30,270.552 30,270 L30,268 L30,265 L30,258 C30,257.448 30.449,257 31,257 C31.552,257 32,257.448 32,258 L32,265 L32,268 L32,270 C32,270.552 32.448,271 33,271 C33.553,271 34,270.552 34,270 L34,268 L34,265 C34,264.448 34.449,264 35,264 C35.552,264 36,264.448 36,265 L36,267 L36,270 C36,270.552 36.448,271 37,271 C37.553,271 38,270.552 38,270 L38,267 C38,266.448 38.449,266 38.972,265.999 C39.143,266.01 40,266.159 40,268 C40,275.552 38.84,279.961 36.553,281.105 M39,264 C38.605,264 38.23,264.081 37.885,264.22 C37.539,262.945 36.383,262 35,262 C34.648,262 34.315,262.072 34,262.184 L34,258 C34,256.345 32.655,255 31,255 C29.346,255 28,256.345 28,258 L28,262.184 C27.686,262.072 27.353,262 27,262 C25.403,262 24,263.401 24,265 L24,269.187 C23.093,268.53 21.806,268 20,268 C17.799,268 17,269.793 17,271 C17,271.144 17.036,272.45 18.293,273.707 C19.223,274.637 21.229,277.645 23.168,280.554 C25.439,283.96 30.775,284 31,284 C31.173,284 35.261,283.987 37.448,282.894 C41.529,280.854 42,273.416 42,268 C42,264.835 40.038,264 39,264" id="report_explicito"></path>
                </g>
            </g>
        </g>
    </g>
</svg>
